flaticon/essential/placeholder-2.svg

<svg xmlns="http://www.w3.org/2000/svg" width="32" height="32" viewBox="0 0 24 24">
    <path d="M 12.140625 10.429688 C 13.652344 10.429688 14.886719 9.199219 14.886719 7.683594 C 14.886719 6.167969 13.652344 4.9375 12.140625 4.9375 C 10.625 4.9375 9.390625 6.167969 9.390625 7.683594 C 9.390625 9.199219 10.625 10.429688 12.140625 10.429688 Z M 12.140625 5.722656 C 13.21875 5.722656 14.101562 6.601562 14.101562 7.683594 C 14.101562 8.765625 13.21875 9.644531 12.140625 9.644531 C 11.058594 9.644531 10.175781 8.765625 10.175781 7.683594 C 10.175781 6.601562 11.058594 5.722656 12.140625 5.722656 Z M 12.140625 5.722656"/>
    <path d="M 19.703125 14.746094 L 16.894531 14.746094 L 18.089844 13.019531 C 20.347656 10.011719 20.019531 5.0625 17.390625 2.433594 C 15.96875 1.011719 14.078125 0.230469 12.070312 0.230469 C 10.058594 0.230469 8.171875 1.011719 6.75 2.433594 C 4.117188 5.0625 3.792969 10.011719 6.042969 13.007812 L 7.246094 14.746094 L 4.296875 14.746094 L 0 23.769531 L 24 23.769531 Z M 6.679688 12.550781 C 4.636719 9.828125 4.929688 5.359375 7.304688 2.988281 C 8.578125 1.714844 10.269531 1.015625 12.070312 1.015625 C 13.871094 1.015625 15.5625 1.714844 16.835938 2.988281 C 19.210938 5.359375 19.5 9.828125 17.453125 12.5625 L 12.070312 20.335938 L 8.199219 14.746094 Z M 4.792969 15.53125 L 7.789062 15.53125 L 12.070312 21.714844 L 16.351562 15.53125 L 19.207031 15.53125 L 22.757812 22.984375 L 1.242188 22.984375 Z M 4.792969 15.53125"/>
</svg>

<svg xmlns="http://www.w3.org/2000/svg" width="32" height="32" viewBox="0 0 24 24">
    <path d="M12.14 10.43a2.75 2.75 0 0 0 2.747-2.746 2.75 2.75 0 0 0-2.746-2.747 2.75 2.75 0 0 0-2.75 2.747 2.75 2.75 0 0 0 2.75 2.746zm0-4.707c1.079 0 1.962.879 1.962 1.96 0 1.083-.883 1.962-1.961 1.962a1.966 1.966 0 0 1-1.965-1.961c0-1.082.883-1.961 1.965-1.961zm0 0"/>
    <path d="M19.703 14.746h-2.808l1.195-1.726c2.258-3.008 1.93-7.957-.7-10.586A7.476 7.476 0 0 0 12.07.23a7.469 7.469 0 0 0-5.32 2.204c-2.633 2.628-2.957 7.578-.707 10.574l1.203 1.738h-2.95L0 23.77h24zM6.68 12.551c-2.043-2.723-1.75-7.192.625-9.563a6.692 6.692 0 0 1 4.765-1.972c1.801 0 3.492.699 4.766 1.972 2.375 2.371 2.664 6.84.617 9.575l-5.383 7.773-3.87-5.59zm-1.887 2.98h2.996l4.281 6.184 4.282-6.184h2.855l3.55 7.453H1.243zm0 0"/>
</svg>
